**harm	**harte	**timestamp	**phrase	**leadinstrument	**kern
*M4/4	*M4/4	*	*	*	*
*D-:	*D-:	*	*	*	*D-:
1r;	N	0	.	r	1r;
=1	=1	=1	=1	=1	=1
*>A_intro	*>A_intro	*>A_intro	*>A_intro	*>A_intro	*>A_intro
1I	D-:maj	0.232	newline	r	1D- 1f 1a-
=2	=2	=2	=2	=2	=2
1V	A-:maj	2.601	.	r	1A- 1cc 1ee-
=3	=3	=3	=3	=3	=3
1IV	G-:maj	4.971	.	r	1G- 1b- 1dd-
=4	=4	=4	=4	=4	=4
1V	A-:maj	7.34	.	r	1A- 1cc 1ee-
=5	=5	=5	=5	=5	=5
*>B_verse	*>B_verse	*>B_verse	*>B_verse	*>B_verse	*>B_verse
1I	D-:maj6	9.709	newline	voice	1D- 1f 1a-
=6	=6	=6	=6	=6	=6
1IV	G-:maj6	12.042	.	voice	1G- 1b- 1dd-
=7	=7	=7	=7	=7	=7
1I	D-:maj6(9)	14.374	.	voice	1D- 1f 1a-
=8	=8	=8	=8	=8	=8
1IV	G-:maj6	16.707	.	voice	1G- 1b- 1dd-
=9	=9	=9	=9	=9	=9
1I	D-:maj6(9)	19.04	newline	voice	1D- 1f 1a-
=10	=10	=10	=10	=10	=10
1IV	G-:maj6	21.364	.	voice	1G- 1b- 1dd-
=11	=11	=11	=11	=11	=11
1vi	B-:min	23.687	.	voice	1B- 1dd- 1ff
=12	=12	=12	=12	=12	=12
1IV	G-:maj6	26.011	.	voice	1G- 1b- 1dd-
=13	=13	=13	=13	=13	=13
1I	D-:maj6(9)	28.334	newline	voice	1D- 1f 1a-
=14	=14	=14	=14	=14	=14
1IV	G-:maj6	30.669	.	voice	1G- 1b- 1dd-
=15	=15	=15	=15	=15	=15
1I	D-:maj6(9)	33.005	.	voice	1D- 1f 1a-
=16	=16	=16	=16	=16	=16
1IV	G-:maj6	35.34	.	voice	1G- 1b- 1dd-
=17	=17	=17	=17	=17	=17
1I	D-:maj6(9)	37.675	newline	voice	1D- 1f 1a-
=18	=18	=18	=18	=18	=18
1V7	A-:7	40.011	.	voice	1A- 1cc 1ee- 1gg-
=19	=19	=19	=19	=19	=19
1vi	B-:min	42.348	.	voice	1B- 1dd- 1ff
=20	=20	=20	=20	=20	=20
1V	A-:maj	44.684	.	voice	1A- 1cc 1ee-
=21	=21	=21	=21	=21	=21
*>C_chorus	*>C_chorus	*>C_chorus	*>C_chorus	*>C_chorus	*>C_chorus
1IV	G-:maj6	47.02	newline	voice	1G- 1b- 1dd-
=22	=22	=22	=22	=22	=22
1V7	A-:7	49.332	.	voice	1A- 1cc 1ee- 1gg-
=23	=23	=23	=23	=23	=23
1vi	B-:min	51.644	.	voice	1B- 1dd- 1ff
=24	=24	=24	=24	=24	=24
1V	A-:maj	53.955	.	voice	1A- 1cc 1ee-
=25	=25	=25	=25	=25	=25
*>B_verse	*>B_verse	*>B_verse	*>B_verse	*>B_verse	*>B_verse
1I	D-:maj6(9)	56.267	newline	voice	1D- 1f 1a-
=26	=26	=26	=26	=26	=26
1IV	G-:maj6	58.626	.	voice	1G- 1b- 1dd-
=27	=27	=27	=27	=27	=27
1I	D-:maj6(9)	60.986	.	voice	1D- 1f 1a-
=28	=28	=28	=28	=28	=28
1IV	G-:maj6	63.345	.	voice	1G- 1b- 1dd-
=29	=29	=29	=29	=29	=29
1I	D-:maj6(9)	65.704	newline	voice	1D- 1f 1a-
=30	=30	=30	=30	=30	=30
1IV	G-:maj6	68.069	.	voice	1G- 1b- 1dd-
=31	=31	=31	=31	=31	=31
1vi	B-:min	70.434	.	voice	1B- 1dd- 1ff
=32	=32	=32	=32	=32	=32
1IV	G-:maj6	72.8	.	voice	1G- 1b- 1dd-
=33	=33	=33	=33	=33	=33
1I	D-:maj6(9)	75.165	newline	voice	1D- 1f 1a-
=34	=34	=34	=34	=34	=34
1IV	G-:maj6	77.511	.	voice	1G- 1b- 1dd-
=35	=35	=35	=35	=35	=35
1I	D-:maj6(9)	79.856	.	voice	1D- 1f 1a-
=36	=36	=36	=36	=36	=36
1IV	G-:maj6	82.202	.	voice	1G- 1b- 1dd-
=37	=37	=37	=37	=37	=37
1I	D-:maj6(9)	84.548	newline	voice	1D- 1f 1a-
=38	=38	=38	=38	=38	=38
1V7	A-:7	86.87	.	voice	1A- 1cc 1ee- 1gg-
=39	=39	=39	=39	=39	=39
1vi	B-:min	89.192	.	voice	1B- 1dd- 1ff
=40	=40	=40	=40	=40	=40
1V	A-:maj	91.514	.	voice	1A- 1cc 1ee-
=41	=41	=41	=41	=41	=41
*>C_chorus	*>C_chorus	*>C_chorus	*>C_chorus	*>C_chorus	*>C_chorus
1IV	G-:maj6	93.836	newline	voice	1G- 1b- 1dd-
=42	=42	=42	=42	=42	=42
1V7	A-:7	96.169	.	voice	1A- 1cc 1ee- 1gg-
=43	=43	=43	=43	=43	=43
1vi	B-:min	98.501	.	voice	1B- 1dd- 1ff
=44	=44	=44	=44	=44	=44
1V	A-:maj	100.833	.	voice	1A- 1cc 1ee-
=45	=45	=45	=45	=45	=45
*>B_outro	*>B_outro	*>B_outro	*>B_outro	*>B_outro	*>B_outro
1I	D-:maj6(9)	103.166	newline	voice	1D- 1f 1a-
=46	=46	=46	=46	=46	=46
1IV	G-:maj6	105.518	.	voice	1G- 1b- 1dd-
=47	=47	=47	=47	=47	=47
1I	D-:maj6(9)	107.87	.	voice	1D- 1f 1a-
=48	=48	=48	=48	=48	=48
1IV	G-:maj6	110.222	.	voice	1G- 1b- 1dd-
=49	=49	=49	=49	=49	=49
1I	D-:maj6(9)	112.573	newline	voice	1D- 1f 1a-
=50	=50	=50	=50	=50	=50
1IV	G-:maj6	114.902	.	voice	1G- 1b- 1dd-
=51	=51	=51	=51	=51	=51
1I	D-:maj6(9)	117.231	.	voice	1D- 1f 1a-
=52	=52	=52	=52	=52	=52
1IV	G-:maj6	119.559	.	voice	1G- 1b- 1dd-
=53	=53	=53	=53	=53	=53
*>_fadeout	*>_fadeout	*>_fadeout	*>_fadeout	*>_fadeout	*>_fadeout
1I	D-:maj6(9)	121.888	newline	voice	1D- 1f 1a-
=54	=54	=54	=54	=54	=54
1IV	G-:maj6	124.238	.	voice	1G- 1b- 1dd-
=55	=55	=55	=55	=55	=55
1I	D-:maj6(9)	126.589	.	voice	1D- 1f 1a-
=56	=56	=56	=56	=56	=56
1IV	G-:maj6	128.939	.	voice	1G- 1b- 1dd-
=57	=57	=57	=57	=57	=57
1I	D-:maj6(9)	131.29	newline	voice	1D- 1f 1a-
=58	=58	=58	=58	=58	=58
1IV	G-:maj6	132.228	.	voice	1G- 1b- 1dd-
=59	=59	=59	=59	=59	=59
1I	D-:maj6(9)	133.166	.	voice	1D- 1f 1a-
=60	=60	=60	=60	=60	=60
1IV	G-:maj6	134.104	.	voice	1G- 1b- 1dd-
1r;	N	135.042	.	r	1r;
1r;	N	138.397	.	r	1r;
*-	*-	*-	*-	*-	*-
!!!OTL: Too Weak To Fight
!!!COC: Clarence Carter
!!!BillboardChartDate: 1968/12/07, 1969/02/01
!!!BillboardPeak: 13, 13
!!!BillboardWeeksOnChart: 15, 15
!!!SampleTargetRank: 30, 33
!!!SampleActualRank: 28, 33
!!!SampleID#: 585, 765
!!!RDF**harmony: **recip + pitch class of root + harmonic quality
!!!RDF**harte: Chris Harte's syntax, used by MIREX
!!!RDF**phrase: newline = linebreak in original McGill transcription
!!!RDF**timestamp: McGill audio timestamp in seconds
!!!RDF**leadinstrument: original McGill primary instrumentation annotation
!!!RDT: 2017/01/12/
!!!ENC: Nathaniel Condit-Schultz
!!!EST: Awating manual error checking and editing.
